X:1144
T:As now we're met.
M:6/8
L:1/8
Q:3/8=104
Z:Jack Campin * www.campin.me.uk * 2009
K:D
f| a2f    e>fg | f2d   c2A |(Bcd) (dcB) |c2(e e2)
e| c>BA   def  |(g2e) (f2d)| B2B  (c>B)c|d2(f f2)
f| a2f    e>fg | f2d   c2A |(Bcd) (dcB) |c2(e e2)
e|(c>BA) (d>ef)|(g2e) (f2d)| B2B  (c>Bc)|d3-  d2|]

